X:1
T:Title
%%score { ( 1 3 ) | ( 2 4 ) }
L:1/8
Q:1/4=100
M:6/8
K:D
V:1 treble nm="Grand Piano"
V:3 treble 
V:2 bass 
V:4 bass 
V:1
 [FA]2 [FA] [Fd]2 [DA] | [DB]2 [Dd] [DA]3 | [B,DG]2 [B,DF] [B,DE]2 [B,DG] | %3
w: Dorsey~W.~Hyde * * *|||
 [A,DF]2[K:bass] [G,CE] [F,D]3 | [A,FA]2 [A,FA] [Fd]2 [DA] | [DB]2 [Dd] [DA]3 | %6
w: |||
 [B,DG]2 [B,DF] [B,DE]2 [B,DG] | [A,DF]2[K:bass] [G,CE] [F,D]3 | d2 A [FA]2- [A,FA] | %9
w: |||
 [Ge]2 A [GA]2- [A,GA] | [A,FA]2 [Fd] [DGB]2 [B,EG] | [A,DF]2 [A,CE] [A,DF]3 | d2 A [FA]2- [A,FA] | %13
w: ||||
 [Ge]2 A [GA]2- [B,GA] | [A,FA]2 [Fd] [DGB]2 [B,EG] | [A,DF]2[K:bass] [G,CE] [F,D]3 |] %16
w: |||
V:2
 [D,A,]2 [D,A,] [D,A,]2 [D,F,] | [G,,G,]2 [B,,G,] [D,F,]3 | B,,2 A,, G,,2 G,, | A,,2 A,, D,3 | %4
 D,2 D, [D,A,]2 [D,F,] | [G,,G,]2 [B,,G,] [D,F,]3 | B,,2 A,, G,,2 G,, | A,,2 A,, D,3 | %8
 F2 F[K:bass] D,2 D, | z2 G C,2 C, | D,2 [D,A,] G,,2 G,, | A,,2 A,, D,3 | F2 F[K:bass] D,2 D, | %13
 z2 G C,2 C, | D,2 [D,A,] G,,2 G,, | A,,2 A,, D,3 |] %16
V:3
 x6 | x6 | x6 | x2[K:bass] x4 | x6 | x6 | x6 | x2[K:bass] x4 | z3 .D3 | z3 .E3 | x6 | x6 | z3 .D3 | %13
 z3 .E3 | x6 | x2[K:bass] x4 |] %16
V:4
 x6 | x6 | x6 | x6 | x6 | x6 | x6 | x6 | x3[K:bass] x3 | [C,A,]3 z3 | x6 | x6 | x3[K:bass] x3 | %13
 [C,A,]3 z3 | x6 | x6 |] %16

